brandFactory_export/2.Regular/Comprar productos hogar_2Regular.svg

<?xml version="1.0" encoding="UTF-8"?>
<svg width="24px" height="24px" viewBox="0 0 24 24" version="1.1" xmlns="http://www.w3.org/2000/svg" xmlns:xlink="http://www.w3.org/1999/xlink">
    <title>2.Regular/Comprar productos hogar_2Regular</title>
    <g id="Symbols" stroke="none" stroke-width="1" fill="none" fill-rule="evenodd">
        <g id="2.Regular/Comprar-productos-hogar_2Regular" fill="#5CB615" fill-rule="nonzero">
            <path d="M10.1714286,19.6436975 C10.7697479,19.6436975 11.2537815,19.8151261 11.6033613,20.1512605 C11.9697479,20.5042017 12.1546218,20.9983193 12.1546218,21.6268908 C12.1546218,22.2554622 11.9697479,22.7495798 11.6033613,23.102521 C11.2571429,23.4386555 10.7731092,23.610084 10.1714286,23.610084 C9.5697479,23.610084 9.08907563,23.4386555 8.7394958,23.102521 C8.37310924,22.7495798 8.18823529,22.2554622 8.18823529,21.6268908 C8.18823529,20.9983193 8.37310924,20.5042017 8.7394958,20.1512605 C9.08907563,19.8151261 9.57310924,19.6436975 10.1714286,19.6436975 Z M16.7260504,19.6436975 C17.3243697,19.6436975 17.8084034,19.8151261 18.1579832,20.1512605 C18.5210084,20.5042017 18.7092437,20.9983193 18.7092437,21.6268908 C18.7092437,22.2554622 18.5243697,22.7495798 18.1579832,23.102521 C17.8117647,23.4386555 17.3277311,23.610084 16.7260504,23.610084 C16.1243697,23.610084 15.6436975,23.4386555 15.2941176,23.102521 C14.9277311,22.7495798 14.7428571,22.2554622 14.7428571,21.6268908 C14.7428571,20.9983193 14.9277311,20.5042017 15.2941176,20.1512605 C15.6436975,19.8151261 16.1277311,19.6436975 16.7260504,19.6436975 Z M10.1714286,20.9882353 C9.68067227,20.9882353 9.53277311,21.1361345 9.53277311,21.6268908 C9.53277311,22.1176471 9.68067227,22.2655462 10.1714286,22.2655462 C10.6621849,22.2655462 10.810084,22.1176471 10.810084,21.6268908 C10.810084,21.1361345 10.6621849,20.9882353 10.1714286,20.9882353 Z M16.7260504,20.9882353 C16.2352941,20.9882353 16.087395,21.1361345 16.087395,21.6268908 C16.087395,22.1176471 16.2352941,22.2655462 16.7260504,22.2655462 C17.2168067,22.2655462 17.3647059,22.1176471 17.3647059,21.6268908 C17.3647059,21.1361345 17.2168067,20.9882353 16.7260504,20.9882353 Z M2.3092437,0.0134453782 C3.94957983,0.0134453782 5.33109244,1.07226891 5.59327731,2.53445378 C5.65173815,2.86140142 5.85908618,4.05517242 6.11907855,5.55931009 L9.76134454,5.55966387 L9.77844538,5.56044538 L13.9462185,1.17983193 C14.0739496,1.04537815 14.2487395,0.971428571 14.4336134,0.971428571 C14.6184874,0.971428571 14.7932773,1.0487395 14.9210084,1.17983193 L16.0470588,2.36638655 L16.0470588,2.29915966 C16.0470588,1.92941176 16.3495798,1.62689076 16.7193277,1.62689076 L18.6857143,1.62689076 C19.0554622,1.62689076 19.3579832,1.92941176 19.3579832,2.29915966 L19.3572332,5.59994893 C19.4260233,5.57603236 19.4998017,5.56302521 19.5764706,5.56302521 L22.9243697,5.56302521 C23.2941176,5.56302521 23.5966387,5.86554622 23.5966387,6.23529412 C23.5966387,6.29243697 23.589916,6.34621849 23.5764706,6.4 C23.3915966,7.13277311 23.0420168,8.53781513 22.6689076,10.0302521 C22.2151261,11.8453782 21.7512605,13.7243697 21.6067227,14.2689076 C21.287395,15.4991597 20.8235294,16.4033613 20.1882353,17.0386555 C19.5193277,17.707563 18.6756303,18.0470588 17.6806723,18.0470588 L10.1714286,18.0470588 C9.16638655,18.0470588 8.27563025,17.707563 7.59327731,17.0689076 C6.88403361,16.4 6.42352941,15.4352941 6.22857143,14.2016807 C6.07394958,13.2168067 4.48739496,4.01008403 4.26554622,2.7697479 C4.1210084,1.96302521 3.28067227,1.35798319 2.30588235,1.35798319 L0.685714286,1.35798319 C0.315966386,1.35798319 0.0134453779,1.05546218 0.0134453779,0.685714286 C0.0134453779,0.315966387 0.315966386,0.0134453782 0.685714286,0.0134453782 L2.3092437,0.0134453782 Z M21.1394958,7.73445378 C21.394958,8.00336134 21.3848739,8.4302521 21.1159664,8.68571429 C20.9915966,8.80336134 20.8268908,8.87058824 20.6521008,8.87058824 L19.3579832,8.87058824 L19.3579832,12.7865546 C19.3579832,13.6033613 18.8470588,14.1142857 18.0302521,14.1142857 L10.8201681,14.1142857 C10,14.1142857 9.49243697,13.6067227 9.49243697,12.7865546 L9.49243697,8.87058824 L8.19831933,8.87058824 C7.82857143,8.87058824 7.52605042,8.56806723 7.52605042,8.19831933 C7.52605042,8.02689076 7.59327731,7.85882353 7.71092437,7.73445378 L8.50044538,6.90344538 L6.35126166,6.90397583 C6.86495313,9.88189662 7.46249901,13.3644958 7.56302521,13.9932773 C7.71092437,14.9243697 8.0302521,15.6268908 8.5210084,16.0907563 C8.9512605,16.497479 9.5092437,16.7058824 10.1747899,16.7058824 L17.6806723,16.7058824 C18.5008403,16.7058824 19.6638655,16.4201681 20.3058824,13.9327731 C20.4470588,13.3915966 20.9109244,11.5193277 21.3647059,9.70420168 C21.6235294,8.66554622 21.8722689,7.66386555 22.0638655,6.90756303 L20.3554454,6.90744538 L21.1394958,7.73445378 Z M14.4336134,2.62184874 L9.76470588,7.52941176 L10.1647059,7.52941176 C10.5344538,7.52941176 10.8369748,7.83193277 10.8369748,8.20168067 L10.8369748,12.7697479 L18.0134454,12.7697479 L18.0134454,8.19831933 C18.0134454,7.82857143 18.3159664,7.52605042 18.6857143,7.52605042 L19.0890756,7.52605042 L18.1983193,6.58823529 C18.0806723,6.46386555 18.0134454,6.29915966 18.0134454,6.12436975 L18.0134454,2.97142857 L17.3915966,2.97142857 L17.3915966,4.05378151 C17.3915966,4.42352941 17.0890756,4.72605042 16.7193277,4.72605042 C16.5344538,4.72605042 16.3596639,4.6487395 16.2319328,4.51764706 L14.4336134,2.62184874 Z" id="Comprar-productos-hogar_2Regular"></path>
        </g>
    </g>
</svg>

<svg width="24" height="24" viewBox="0 0 24 24" xmlns="http://www.w3.org/2000/svg"><path d="M10.171 19.644c.599 0 1.083.171 1.432.507.367.353.552.847.552 1.476 0 .628-.185 1.123-.552 1.476-.346.336-.83.507-1.432.507-.601 0-1.082-.171-1.432-.507-.366-.353-.55-.848-.55-1.476 0-.629.184-1.123.55-1.476.35-.336.834-.507 1.432-.507zm6.555 0c.598 0 1.082.171 1.432.507.363.353.551.847.551 1.476 0 .628-.185 1.123-.551 1.476-.346.336-.83.507-1.432.507s-1.082-.171-1.432-.507c-.366-.353-.551-.848-.551-1.476 0-.629.185-1.123.551-1.476.35-.336.834-.507 1.432-.507zm-6.555 1.344c-.49 0-.638.148-.638.639 0 .49.148.639.638.639.491 0 .64-.148.64-.64 0-.49-.149-.638-.64-.638zm6.555 0c-.49 0-.639.148-.639.639 0 .49.148.639.64.639.49 0 .638-.148.638-.64 0-.49-.148-.638-.639-.638zM2.31.013c1.64 0 3.022 1.06 3.284 2.521.059.327.266 1.521.526 3.025h3.642l.017.001 4.168-4.38a.669.669 0 01.488-.209c.184 0 .36.078.487.209l1.126 1.186V2.3c0-.37.303-.672.672-.672h1.967c.37 0 .672.302.672.672v3.3a.666.666 0 01.218-.036h3.348a.674.674 0 01.652.837l-.907 3.63c-.454 1.815-.918 3.694-1.062 4.239-.32 1.23-.783 2.134-1.419 2.77-.669.669-1.512 1.008-2.507 1.008h-7.51c-1.005 0-1.895-.34-2.578-.978-.709-.669-1.17-1.634-1.364-2.867C6.074 13.217 4.487 4.01 4.266 2.77c-.145-.807-.985-1.412-1.96-1.412H.686A.674.674 0 01.013.686c0-.37.303-.673.673-.673h1.623zm18.83 7.721a.674.674 0 01-.487 1.137h-1.294v3.916c0 .816-.51 1.327-1.328 1.327h-7.21c-.82 0-1.328-.507-1.328-1.327V8.87H8.198a.674.674 0 01-.487-1.137l.79-.83H6.35c.514 2.978 1.111 6.46 1.212 7.09.148.93.467 1.633.958 2.097.43.406.988.615 1.654.615h7.506c.82 0 1.983-.286 2.625-2.773.141-.541.605-2.414 1.059-4.229.259-1.038.507-2.04.699-2.796h-1.709l.784.826zm-6.705-5.112l-4.67 4.907h.4c.37 0 .673.303.673.673v4.568h7.176V8.198c0-.37.303-.672.673-.672h.403l-.89-.938a.674.674 0 01-.186-.464V2.971h-.621v1.083a.674.674 0 01-1.16.464l-1.798-1.896z" fill="#5CB615" fill-rule="nonzero"/></svg>
